app/assets/images/payment_icons/oca.svg

<svg width="38" height="24" viewBox="0 0 38 24" fill="none" role="img" aria-labelledby="pi-oca"  xmlns="http://www.w3.org/2000/svg">
<title id="pi-oca">OCA</title>
<g clip-path="url(#pi-oca-clip0_3_194)">
<path opacity="0.07" d="M35 0H3C1.3 0 0 1.3 0 3V21C0 22.7 1.4 24 3 24H35C36.7 24 38 22.7 38 21V3C38 1.3 36.6 0 35 0Z" fill="black"/>
<path d="M35 1C36.1 1 37 1.9 37 3V21C37 22.1 36.1 23 35 23H3C1.9 23 1 22.1 1 21V3C1 1.9 1.9 1 3 1H35Z" fill="white"/>
<path d="M35 1C36.1 1 37 1.9 37 3V21C37 22.1 36.1 23 35 23H3C1.9 23 1 22.1 1 21V3C1 1.9 1.9 1 3 1H35Z" fill="white"/>
<path fill-rule="evenodd" clip-rule="evenodd" d="M3.1523 13.9634L2 15.8965H35.876V13.9634H3.1523Z" fill="#80CFE3"/>
<path fill-rule="evenodd" clip-rule="evenodd" d="M11.4664 8.27621C11.4788 8.25143 11.4912 8.22664 11.5036 8.20186C11.5036 8.18947 11.516 8.16469 11.516 8.1523C11.516 8.09034 11.4664 8.04078 11.3673 8.016C11.2682 7.99121 11.1195 7.97882 10.9088 7.97882C10.6982 7.97882 10.5371 7.99121 10.438 8.02831C10.3264 8.06556 10.2397 8.15222 10.1777 8.27613L8.45553 11.758C8.44313 11.7827 8.44313 11.7951 8.43082 11.8075C8.43082 11.8323 8.43082 11.8571 8.43082 11.8819C8.43082 11.9438 8.46799 11.9934 8.55465 12.0182C8.64139 12.0553 8.77769 12.0677 8.96356 12.0677C9.19899 12.0677 9.37247 12.043 9.48399 12.0059C9.59551 11.9686 9.68225 11.8819 9.7442 11.758L11.4664 8.27621ZM15.605 8.23904L13.8331 11.7951C13.8207 11.8074 13.8083 11.8323 13.7959 11.857C13.5605 12.3278 13.2136 12.6377 12.7303 12.7863C12.4081 12.8855 11.9621 12.9474 11.4045 12.9846C10.8345 13.0219 9.85565 13.0466 8.46792 13.0466C6.73324 13.0466 5.58094 12.9971 4.99856 12.9103C4.42857 12.8236 4.14357 12.6749 4.14357 12.4519C4.14357 12.3651 4.15596 12.2536 4.19313 12.1421C4.23031 12.0306 4.27987 11.919 4.34183 11.7951L6.0889 8.23911L6.11368 8.20194C6.34911 7.71868 6.69606 7.40898 7.12968 7.27268C7.45185 7.17348 7.87307 7.0992 8.41828 7.06203C8.95109 7.02486 9.96709 7.00008 11.4663 7.00008C13.3249 7.00008 14.5145 7.04964 15.0224 7.13638C15.5305 7.23551 15.7907 7.39659 15.7907 7.64434C15.7907 7.70629 15.7783 7.79303 15.7535 7.87977C15.7165 7.97882 15.6669 8.09034 15.605 8.23904ZM26.7069 8.23904C26.7813 8.10273 26.8185 7.99121 26.8556 7.89209C26.8928 7.79296 26.9051 7.71861 26.9051 7.64426C26.9051 7.39644 26.6449 7.23536 26.1369 7.1363C25.6288 7.04956 24.4394 7 22.5808 7C21.0815 7 20.0531 7.02478 19.5203 7.06196C18.9875 7.09913 18.5661 7.17348 18.244 7.2726C17.9962 7.35934 17.8104 7.45847 17.6616 7.58231C17.513 7.70622 17.3642 7.91687 17.2031 8.23904L15.456 11.7951C15.3941 11.919 15.3445 12.0305 15.3074 12.142C15.2702 12.2535 15.2578 12.365 15.2578 12.4518C15.2578 12.6748 15.5428 12.8235 16.1127 12.9103C16.6951 12.997 17.8475 13.0466 19.5821 13.0466C20.9699 13.0466 21.9487 13.0218 22.5187 12.9845C23.0763 12.9474 23.5224 12.8854 23.8445 12.7863C24.3153 12.6376 24.687 12.3154 24.9349 11.8198V11.795L25.6164 10.4693H21.4903L20.8584 11.7579C20.7965 11.8818 20.7097 11.9561 20.5982 12.0057C20.4743 12.0428 20.3008 12.0676 20.0778 12.0676C19.8919 12.0676 19.7433 12.0552 19.669 12.018C19.5822 11.9932 19.545 11.9437 19.545 11.8817C19.545 11.8569 19.545 11.8322 19.545 11.8198C19.545 11.7949 19.5574 11.7825 19.5698 11.7578L21.2797 8.27606C21.3541 8.15215 21.4408 8.06541 21.5523 8.02824C21.6515 7.99106 21.8125 7.97875 22.0231 7.97875C22.2338 7.97875 22.3825 7.99114 22.4816 8.01592C22.5808 8.0407 22.6303 8.09027 22.6303 8.15222C22.6055 8.20179 22.5807 8.25135 22.5807 8.27613L22.1842 9.06916H26.2979L26.7069 8.23904ZM32.6792 8.5612L30.9817 10.8535H32.3075L32.8403 8.5612H32.6792ZM31.0189 7.0371H36L35.6159 13.0093H31.7252L32.0226 11.8322H30.2878L29.3834 13.0093H25.5299L31.0189 7.0371Z" fill="#0E3192"/>
<path fill-rule="evenodd" clip-rule="evenodd" d="M26.2609 15.1158L27.0043 15.1406C26.9548 15.2397 26.8928 15.3264 26.7938 15.4008C26.707 15.4627 26.5954 15.5247 26.4715 15.5866C26.3477 15.6362 26.2113 15.6734 26.0626 15.6982C25.9263 15.7229 25.7777 15.7353 25.6289 15.7353C25.4554 15.7353 25.282 15.7106 25.1333 15.6734C24.9847 15.6238 24.8607 15.5619 24.7739 15.4627C24.6748 15.376 24.6376 15.2645 24.6376 15.1282C24.6376 15.0786 24.6376 15.029 24.65 14.9795C24.6996 14.806 24.7987 14.6573 24.9474 14.5211C25.0961 14.3972 25.282 14.3104 25.4926 14.2361C25.7033 14.1741 25.9015 14.1494 26.1122 14.137C26.3352 14.137 26.5087 14.1617 26.6698 14.1988C26.8185 14.236 26.9424 14.2856 27.0291 14.3599C27.1035 14.4343 27.153 14.521 27.153 14.6325C27.153 14.6573 27.1406 14.7069 27.1283 14.7564L26.3601 14.7812C26.3725 14.7564 26.3725 14.7317 26.3725 14.6945C26.3725 14.6201 26.3352 14.5706 26.2857 14.5458C26.2238 14.5086 26.1494 14.4963 26.0379 14.4963C25.7902 14.5087 25.629 14.6574 25.5423 14.9424C25.5175 15.0415 25.5051 15.1159 25.4927 15.1778C25.5051 15.2274 25.5175 15.2646 25.5423 15.2893C25.567 15.3141 25.6042 15.3389 25.6538 15.3513C25.6786 15.3513 25.7281 15.3637 25.7902 15.3637C25.9016 15.3637 26.0007 15.3389 26.0875 15.2893C26.1741 15.2397 26.2361 15.1777 26.2609 15.1158ZM26.9919 15.7106H27.6858L27.946 15.4008H28.6771L28.7389 15.7106H29.6063L29.2594 14.1494H28.3797L26.9919 15.7106ZM28.6523 15.0662H28.2062L28.5779 14.6201L28.6523 15.0662ZM30.3374 14.1617H31.7871C32.0597 14.1617 32.2703 14.1865 32.4066 14.2608C32.5553 14.3228 32.6173 14.4095 32.6173 14.5334C32.6173 14.6078 32.5925 14.6697 32.5429 14.7441C32.4934 14.8059 32.419 14.8679 32.3199 14.9175C32.2208 14.9671 32.1216 15.0043 31.9853 15.029L32.2579 15.7105H31.3163L31.1056 15.1157H30.8578L30.6596 15.7105H29.8047L30.3374 14.1617ZM31.0809 14.4839L30.9693 14.7813H31.3782C31.4898 14.7813 31.5641 14.7689 31.6385 14.7317C31.7004 14.6946 31.7252 14.6574 31.7252 14.6079C31.7252 14.5707 31.7128 14.5459 31.6632 14.5212C31.6261 14.4964 31.5641 14.484 31.4774 14.484H31.0809V14.4839ZM32.5306 15.6982H33.6086C33.906 15.6982 34.1786 15.6609 34.4139 15.599C34.637 15.5247 34.8228 15.4256 34.9591 15.314C35.0954 15.1901 35.1946 15.0662 35.2317 14.9299C35.2565 14.8804 35.2565 14.8183 35.2565 14.7564C35.2565 14.6697 35.2317 14.5954 35.1946 14.521C35.1451 14.4467 35.0831 14.3847 34.9964 14.3228C34.9096 14.2732 34.7981 14.236 34.6742 14.1988C34.5504 14.1741 34.414 14.1617 34.2654 14.1617H33.0635L32.5306 15.6982ZM33.4971 15.3512L33.782 14.5086C33.844 14.5086 33.8812 14.5086 33.906 14.5086C34.067 14.5086 34.191 14.5334 34.2653 14.583C34.3396 14.6448 34.3768 14.7068 34.3768 14.7935C34.3768 14.8183 34.3768 14.8555 34.3644 14.9051C34.3396 15.029 34.2529 15.1405 34.129 15.2272C34.0052 15.314 33.8317 15.3511 33.5963 15.3511C33.559 15.3512 33.5218 15.3512 33.4971 15.3512Z" fill="#0E3192"/>
</g>
<defs>
<clipPath id="pi-oca-clip0_3_194">
<rect width="38" height="24" fill="white"/>
</clipPath>
</defs>
</svg>

<svg width="38" height="24" viewBox="0 0 38 24" fill="none" role="img" aria-labelledby="pi-oca" xmlns="http://www.w3.org/2000/svg"><title id="pi-oca">OCA</title><g clip-path="url(#pi-oca-clip0_3_194)"><path opacity=".07" d="M35 0H3C1.3 0 0 1.3 0 3v18c0 1.7 1.4 3 3 3h32c1.7 0 3-1.3 3-3V3c0-1.7-1.4-3-3-3z" fill="#000"/><path d="M35 1c1.1 0 2 .9 2 2v18c0 1.1-.9 2-2 2H3c-1.1 0-2-.9-2-2V3c0-1.1.9-2 2-2h32z" fill="#fff"/><path d="M35 1c1.1 0 2 .9 2 2v18c0 1.1-.9 2-2 2H3c-1.1 0-2-.9-2-2V3c0-1.1.9-2 2-2h32z" fill="#fff"/><path fill-rule="evenodd" clip-rule="evenodd" d="M3.152 13.963L2 15.897h33.876v-1.934H3.152z" fill="#80CFE3"/><path fill-rule="evenodd" clip-rule="evenodd" d="M11.466 8.276l.038-.074c0-.013.012-.037.012-.05 0-.062-.05-.111-.149-.136a2.032 2.032 0 00-.458-.037c-.21 0-.372.012-.471.05a.461.461 0 00-.26.247l-1.722 3.482c-.013.025-.013.037-.025.05v.074c0 .062.037.111.124.136.086.037.223.05.409.05.235 0 .408-.025.52-.062a.462.462 0 00.26-.248l1.722-3.482zm4.139-.037l-1.772 3.556c-.012.012-.025.037-.037.062-.236.47-.582.78-1.066.93-.322.098-.768.16-1.325.198-.57.037-1.55.062-2.937.062-1.735 0-2.887-.05-3.47-.137-.57-.086-.854-.235-.854-.458 0-.087.012-.198.05-.31.036-.111.086-.223.148-.347L6.089 8.24l.025-.037c.235-.483.582-.793 1.016-.93.322-.099.743-.173 1.288-.21C8.951 7.025 9.968 7 11.466 7c1.859 0 3.049.05 3.556.136.508.1.769.26.769.508a.915.915 0 01-.037.236c-.037.099-.087.21-.149.359zm11.102 0c.074-.136.111-.248.149-.347.037-.099.05-.173.05-.248 0-.248-.261-.409-.77-.508C25.63 7.05 24.44 7 22.582 7c-1.5 0-2.528.025-3.06.062-.534.037-.955.111-1.277.21a1.834 1.834 0 00-.582.31c-.149.124-.298.335-.459.657l-1.747 3.556a2.649 2.649 0 00-.149.347 1 1 0 00-.05.31c0 .223.286.371.856.458.582.087 1.735.137 3.47.137 1.387 0 2.366-.025 2.936-.063.557-.037 1.003-.099 1.326-.198.47-.148.842-.47 1.09-.966v-.025l.681-1.326H21.49l-.632 1.289a.505.505 0 01-.26.248 1.861 1.861 0 01-.52.062c-.186 0-.335-.013-.409-.05-.087-.025-.124-.074-.124-.136v-.062c0-.025.012-.037.025-.062l1.71-3.482c.074-.124.16-.21.272-.248.1-.037.26-.05.471-.05.21 0 .36.013.459.038.099.025.148.074.148.136-.024.05-.05.1-.05.124l-.396.793h4.114l.409-.83zm5.972.322l-1.697 2.293h1.325l.533-2.293h-.16zm-1.66-1.524H36l-.384 5.972h-3.89l.297-1.177h-1.735l-.905 1.177H25.53l5.489-5.972zM26.26 15.116l.744.025a.7.7 0 01-.21.26 2.483 2.483 0 01-.323.186c-.123.05-.26.086-.408.111a2.464 2.464 0 01-.434.037c-.174 0-.347-.024-.496-.062a.793.793 0 01-.36-.21.414.414 0 01-.135-.335c0-.05 0-.099.012-.149a.98.98 0 01.297-.458c.15-.124.335-.21.546-.285.21-.062.409-.087.62-.099.222 0 .396.025.557.062a.879.879 0 01.36.16.375.375 0 01.123.274c0 .024-.012.074-.025.123l-.768.025c.012-.025.012-.05.012-.087a.158.158 0 00-.086-.148.463.463 0 00-.248-.05c-.248.013-.409.161-.496.446-.025.1-.037.174-.05.236.013.05.025.087.05.111.025.025.062.05.112.062.025 0 .074.013.136.013.112 0 .21-.025.297-.075a.388.388 0 00.174-.173zm.732.595h.694l.26-.31h.731l.062.31h.867l-.347-1.562h-.88l-1.387 1.562zm1.66-.645h-.446l.372-.446.074.446zm1.685-.904h1.45c.273 0 .483.024.62.099.148.062.21.149.21.272a.364.364 0 01-.074.211.667.667 0 01-.223.174c-.1.05-.198.086-.335.111l.273.681h-.942l-.21-.594h-.248l-.198.595h-.855l.532-1.55zm.744.322l-.112.297h.41a.542.542 0 00.26-.05c.061-.036.086-.074.086-.123 0-.037-.012-.062-.062-.087-.037-.025-.099-.037-.186-.037h-.396zm1.45 1.214h1.078c.297 0 .57-.037.805-.099.223-.074.409-.173.545-.285.136-.124.236-.248.273-.384.025-.05.025-.112.025-.174a.514.514 0 00-.062-.235.752.752 0 00-.199-.198 1.594 1.594 0 00-.322-.124 2.094 2.094 0 00-.409-.037h-1.202l-.532 1.536zm.966-.347l.285-.842h.124c.161 0 .285.024.36.074.074.062.11.124.11.21 0 .025 0 .063-.012.112a.538.538 0 01-.235.322c-.124.087-.297.124-.533.124h-.099z" fill="#0E3192"/></g><defs><clipPath id="pi-oca-clip0_3_194"><path fill="#fff" d="M0 0h38v24H0z"/></clipPath></defs></svg>
